public/feature04.svg

<svg width="61" height="61" viewBox="0 0 61 61" fill="none" xmlns="http://www.w3.org/2000/svg">
<g clip-path="url(#clip0_6511_1853)">
<g clip-path="url(#clip1_6511_1853)">
<g clip-path="url(#clip2_6511_1853)">
<mask id="mask0_6511_1853" style="mask-type:luminance" maskUnits="userSpaceOnUse" x="0" y="0" width="61" height="61">
<path d="M60.2933 0.919922H0.988281V60.225H60.2933V0.919922Z" fill="white"/>
</mask>
<g mask="url(#mask0_6511_1853)">
<path d="M44.5197 56.8659C43.9191 56.8659 43.4253 57.3228 43.367 57.9081H34.6505L33.2754 49.6275L34.8038 48.0991C35.021 47.8819 35.1431 47.5872 35.1431 47.2801C35.1431 46.9729 35.021 46.6783 34.8038 46.461L33.4514 45.1086H35.7624C38.2986 45.1086 40.6586 46.3674 42.0752 48.476C42.4319 49.007 43.1516 49.1482 43.6825 48.7916C44.2135 48.4348 44.3547 47.7151 43.998 47.184C42.1649 44.4556 39.1198 42.8188 35.8403 42.7931C36.9624 41.5505 37.6468 39.9055 37.6468 38.1034V36.4046C37.6468 32.5419 34.5044 29.3994 30.6416 29.3994C26.7789 29.3994 23.6365 32.5419 23.6365 36.4046V38.1034C23.6365 39.906 24.3212 41.5512 25.4435 42.794C20.0118 42.8359 15.6055 47.266 15.6055 52.7075V59.0663C15.6055 59.706 16.124 60.2247 16.7638 60.2247H44.5195C45.1592 60.2247 45.6778 59.706 45.6778 59.0663V58.0241C45.678 57.3845 45.1594 56.8659 44.5197 56.8659ZM30.6552 48.9717L28.9635 47.2801L30.6552 45.5885L32.3469 47.2801L30.6552 48.9717ZM30.0556 51.5995C30.2395 51.7109 30.4471 51.768 30.6551 51.768C30.8631 51.768 31.0708 51.711 31.2545 51.5995L32.3022 57.9081H29.0079L30.0556 51.5995ZM25.9533 36.4046C25.9533 33.8194 28.0565 31.716 30.6419 31.716C33.2272 31.716 35.3305 33.8192 35.3305 36.4046V38.1034C35.3305 40.6887 33.2272 42.792 30.6419 42.792C28.0565 42.792 25.9533 40.6888 25.9533 38.1034V36.4046ZM17.9223 52.7075C17.9223 48.5174 21.3312 45.1086 25.5212 45.1086H27.8587L26.5063 46.461C26.2891 46.6783 26.167 46.9729 26.167 47.2801C26.167 47.5872 26.2891 47.8819 26.5063 48.0991L28.0347 49.6275L26.6596 57.9081H17.9222L17.9223 52.7075Z" fill="#3BB77E"/>
<path d="M24.5 2.20557C24.8429 2.20557 32.6429 2.49128 36.5 2.63414V15.0627L24.5 14.6341V2.20557Z" fill="#FDC040"/>
<path d="M51.9297 2.63428L45.9297 13.7771H58.7868L52.7868 3.06285L51.9297 2.63428Z" fill="#FDC040"/>
<path d="M24.5 2.20557C24.8429 2.20557 32.6429 2.49128 36.5 2.63414V15.0627L24.5 14.6341V2.20557Z" stroke="black" stroke-width="0.857143" stroke-linecap="round" stroke-linejoin="round"/>
<path d="M51.9297 2.63428L45.9297 13.7771H58.7868L52.7868 3.06285L51.9297 2.63428Z" stroke="black" stroke-width="0.857143" stroke-linecap="round" stroke-linejoin="round"/>
<path d="M15.8012 8.32731C15.8012 4.24337 12.4786 0.920898 8.3948 0.920898C4.31098 0.920898 0.988281 4.24349 0.988281 8.32731C0.988281 12.4111 4.31087 15.7338 8.39469 15.7338C12.4785 15.7338 15.8012 12.4112 15.8012 8.32731ZM3.30488 8.32731C3.30488 5.52086 5.58812 3.2375 8.39469 3.2375C11.2013 3.2375 13.4845 5.52086 13.4845 8.32731C13.4845 11.1337 11.2013 13.4172 8.39469 13.4172C5.58812 13.4172 3.30488 11.1339 3.30488 8.32731Z" fill="#3BB77E"/>
<path d="M24.3926 15.7329H36.889C37.5287 15.7329 38.0473 15.2141 38.0473 14.5745V2.07822C38.0473 1.43861 37.5287 0.919922 36.889 0.919922H24.3926C23.7529 0.919922 23.2344 1.43861 23.2344 2.07822V14.5745C23.2344 15.2141 23.7529 15.7329 24.3926 15.7329ZM25.551 3.23653H35.7307V13.4163H25.551V3.23653Z" fill="#3BB77E"/>
<path d="M60.1378 13.5351L53.4543 1.95903C53.2474 1.60066 52.8651 1.37988 52.4512 1.37988C52.0373 1.37988 51.655 1.60066 51.4481 1.95903L44.7646 13.5351C44.5576 13.8935 44.5576 14.335 44.7646 14.6934C44.9715 15.0518 45.3538 15.2726 45.7677 15.2726H59.1347C59.5486 15.2726 59.9309 15.0518 60.1378 14.6934C60.3448 14.335 60.3448 13.8935 60.1378 13.5351ZM47.7739 12.956L52.4511 4.85479L57.1283 12.956H47.7739Z" fill="#3BB77E"/>
<path d="M30.6413 27.1256C31.2811 27.1256 31.7997 26.6068 31.7997 25.9672V22.6623L31.8466 22.7278C32.0728 23.0438 32.4284 23.2121 32.7895 23.2121C33.0228 23.2121 33.2584 23.1418 33.4627 22.9956C33.9829 22.6234 34.1028 21.8998 33.7306 21.3796L31.5834 18.3793C31.3659 18.0754 31.0151 17.895 30.6415 17.895C30.2678 17.895 29.917 18.0754 29.6995 18.3793L27.5524 21.3796C27.1801 21.8998 27.3 22.6234 27.8202 22.9956C28.3404 23.3679 29.0638 23.2481 29.4363 22.7278L29.4831 22.6623V25.9672C29.4831 26.607 30.0016 27.1256 30.6413 27.1256Z" fill="#3BB77E"/>
<path d="M21.1058 36.5067C21.1058 35.867 20.5872 35.3483 19.9475 35.3483H9.56135V22.6623L9.60832 22.7278C9.83452 23.0438 10.1901 23.2121 10.5513 23.2121C10.7845 23.2121 11.0201 23.1418 11.2245 22.9956C11.7447 22.6234 11.8645 21.8998 11.4922 21.3796L9.34509 18.3793C9.12754 18.0754 8.77684 17.895 8.40318 17.895C8.02951 17.895 7.67878 18.0754 7.46125 18.3793L5.31411 21.3796C4.94183 21.8998 5.06171 22.6234 5.58191 22.9956C6.10199 23.3679 6.82558 23.2481 7.19797 22.7278L7.24476 22.6623V36.5067C7.24476 37.1463 7.76333 37.6649 8.40306 37.6649H19.9475C20.5871 37.6649 21.1058 37.1464 21.1058 36.5067Z" fill="#3BB77E"/>
<path d="M53.8205 18.3793C53.6029 18.0754 53.2522 17.895 52.8786 17.895C52.5049 17.895 52.1542 18.0754 51.9366 18.3793L49.7895 21.3796C49.4172 21.8998 49.5371 22.6234 50.0573 22.9956C50.5775 23.3679 51.3011 23.2481 51.6733 22.7278L51.7202 22.6624V35.3484H41.3341C40.6944 35.3484 40.1758 35.8672 40.1758 36.5068C40.1758 37.1464 40.6944 37.665 41.3341 37.665H52.8786C53.5182 37.665 54.0368 37.1464 54.0368 36.5068V22.6624L54.0838 22.7278C54.31 23.0439 54.6656 23.2122 55.0267 23.2122C55.26 23.2122 55.4956 23.1419 55.6999 22.9957C56.2201 22.6234 56.34 21.9 55.9678 21.3798L53.8205 18.3793Z" fill="#3BB77E"/>
<path d="M44.5177 53.9704C45.1574 53.9704 45.676 53.4518 45.676 52.8122C45.676 52.1725 45.1574 51.6538 44.5177 51.6538C43.8779 51.6538 43.3594 52.1725 43.3594 52.8122C43.3594 53.4518 43.8779 53.9704 44.5177 53.9704Z" fill="#3BB77E"/>
</g>
</g>
</g>
</g>
<defs>
<clipPath id="clip0_6511_1853">
<rect width="60" height="60" fill="white" transform="translate(0.5 0.919922)"/>
</clipPath>
<clipPath id="clip1_6511_1853">
<rect width="60" height="60" fill="white" transform="translate(0.5 0.919922)"/>
</clipPath>
<clipPath id="clip2_6511_1853">
<rect width="60" height="60" fill="white" transform="translate(0.5 0.919922)"/>
</clipPath>
</defs>
</svg>

<svg xmlns="http://www.w3.org/2000/svg" width="61" height="61" fill="none"><g clip-path="url(#a)"><g clip-path="url(#b)"><g clip-path="url(#c)"><mask id="d" width="61" height="61" x="0" y="0" maskUnits="userSpaceOnUse" style="mask-type:luminance"><path fill="#fff" d="M60.293.92H.988v59.305h59.305z"/></mask><g mask="url(#d)"><path fill="#3BB77E" d="M44.52 56.866c-.6 0-1.095.457-1.153 1.042h-8.716l-1.376-8.28 1.529-1.529a1.16 1.16 0 0 0 0-1.638l-1.353-1.352h2.311a7.6 7.6 0 0 1 6.313 3.367 1.158 1.158 0 1 0 1.923-1.292 9.91 9.91 0 0 0-8.158-4.39 6.98 6.98 0 0 0 1.807-4.69v-1.7a7.013 7.013 0 0 0-7.005-7.005 7.013 7.013 0 0 0-7.005 7.006v1.698c0 1.803.684 3.448 1.806 4.691-5.431.042-9.838 4.472-9.838 9.914v6.358c0 .64.519 1.159 1.159 1.159H44.52c.64 0 1.158-.519 1.158-1.159v-1.042c0-.64-.519-1.158-1.158-1.158m-13.865-7.894-1.692-1.692 1.692-1.691 1.692 1.691zm-.6 2.627a1.16 1.16 0 0 0 1.2 0l1.047 6.31h-3.294zm-4.102-15.194a4.694 4.694 0 0 1 4.689-4.689 4.694 4.694 0 0 1 4.689 4.689v1.698a4.694 4.694 0 0 1-4.69 4.689 4.694 4.694 0 0 1-4.688-4.689zm-8.03 16.303c0-4.19 3.408-7.6 7.598-7.6h2.338l-1.353 1.353a1.16 1.16 0 0 0 0 1.638l1.529 1.529-1.375 8.28h-8.738z"/><path fill="#FDC040" d="M24.5 2.206c.343 0 8.143.285 12 .428v12.429l-12-.429zM51.93 2.634l-6 11.143h12.857l-6-10.714z"/><path stroke="#000" stroke-linecap="round" stroke-linejoin="round" stroke-width=".857" d="M24.5 2.206c.343 0 8.143.285 12 .428v12.429l-12-.429zM51.93 2.634l-6 11.143h12.857l-6-10.714z"/><path fill="#3BB77E" d="M15.801 8.327c0-4.084-3.322-7.406-7.406-7.406S.988 4.243.988 8.327s3.323 7.407 7.407 7.407S15.8 12.41 15.8 8.327m-12.496 0a5.096 5.096 0 0 1 5.09-5.09 5.096 5.096 0 0 1 5.09 5.09 5.096 5.096 0 0 1-5.09 5.09 5.096 5.096 0 0 1-5.09-5.09M24.393 15.733h12.496c.64 0 1.158-.519 1.158-1.158V2.078c0-.64-.518-1.158-1.158-1.158H24.393c-.64 0-1.159.519-1.159 1.158v12.497c0 .64.519 1.158 1.159 1.158M25.55 3.237h10.18v10.18H25.55zM60.138 13.535 53.454 1.96a1.158 1.158 0 0 0-2.006 0l-6.683 11.576a1.158 1.158 0 0 0 1.003 1.738h13.367a1.158 1.158 0 0 0 1.003-1.738m-12.364-.579 4.677-8.101 4.677 8.101zM30.641 27.126c.64 0 1.159-.52 1.159-1.159v-3.305l.047.066a1.157 1.157 0 0 0 1.616.268c.52-.373.64-1.096.268-1.616l-2.148-3a1.158 1.158 0 0 0-1.883 0l-2.148 3a1.158 1.158 0 1 0 1.884 1.348l.047-.066v3.305c0 .64.519 1.159 1.158 1.159M21.106 36.507c0-.64-.519-1.159-1.158-1.159H9.56V22.662l.047.066a1.157 1.157 0 0 0 1.617.268c.52-.373.64-1.096.267-1.616l-2.147-3a1.158 1.158 0 0 0-1.884 0l-2.147 3a1.158 1.158 0 1 0 1.884 1.348l.047-.066v13.845c0 .64.518 1.158 1.158 1.158h11.545c.64 0 1.158-.519 1.158-1.158M53.82 18.38a1.16 1.16 0 0 0-1.883 0l-2.148 3a1.158 1.158 0 1 0 1.884 1.348l.047-.066v12.686H41.334a1.158 1.158 0 0 0 0 2.317H52.88c.64 0 1.158-.519 1.158-1.158V22.662l.047.066a1.157 1.157 0 0 0 1.616.268c.52-.373.64-1.096.268-1.616zM44.518 53.97a1.158 1.158 0 1 0 0-2.316 1.158 1.158 0 0 0 0 2.316"/></g></g></g></g><defs><clipPath id="a"><path fill="#fff" d="M.5.92h60v60H.5z"/></clipPath><clipPath id="b"><path fill="#fff" d="M.5.92h60v60H.5z"/></clipPath><clipPath id="c"><path fill="#fff" d="M.5.92h60v60H.5z"/></clipPath></defs></svg>
